Newaita/actions/16/view-certificate-export-server.svg

<svg height="16" viewBox="0 0 16 16" width="16" xmlns="http://www.w3.org/2000/svg"><g fill="#424242"><path d="m2.644531 2.769531c-.730469 0-1.320312.589844-1.320312 1.324219v7.9375c0 .734375.589843 1.324219 1.320312 1.324219h3.96875v-1.324219h-3.304687c-.367188 0-.664063-.292969-.664063-.660156v-6.617188c0-.363281.296875-.660156.664063-.660156h9.261718c.363282 0 .660157.296875.660157.660156v3.972656h1.324219v-4.632812c0-.734375-.589844-1.324219-1.324219-1.324219zm0 0"/><path d="m9.425781 5.417969h2.316407c.089843 0 .164062.074219.164062.164062v.332031c0 .089844-.074219.164063-.164062.164063h-2.316407c-.089843 0-.164062-.074219-.164062-.164063v-.332031c0-.089843.074219-.164062.164062-.164062zm0 0"/><path d="m9.425781 7.402344h2.316407c.089843 0 .164062.074218.164062.164062v.332032c0 .089843-.074219.164062-.164062.164062h-2.316407c-.089843 0-.164062-.074219-.164062-.164062v-.332032c0-.089844.074219-.164062.164062-.164062zm0 0"/><path d="m11.90625 10.046875v.992187h-3.660156c-.183594 0-.332032.148438-.332032.332032v.660156c0 .183594.148438.332031.332032.332031h3.660156v.992188l2.648438-1.652344zm0 0"/><path d="m4.628906 5.746094c-.363281 0-.660156.296875-.660156.664062v3.308594c0 .363281.296875.660156.660156.660156h2.648438c.367187 0 .660156-.296875.660156-.660156v-3.308594c0-.367187-.292969-.664062-.660156-.664062zm1.324219.664062h.992187c.183594 0 .332032.148438.332032.328125v.996094h-1.324219zm-1.324219 1.984375h2.648438v.992188c0 .183593-.148438.332031-.332032.332031h-1.984374c-.183594 0-.332032-.148438-.332032-.332031zm0 0"/></g></svg>

<?xml version="1.0" encoding="UTF-8"?>
<svg xmlns="http://www.w3.org/2000/svg" xmlns:xlink="http://www.w3.org/1999/xlink" width="16px" height="16px" viewBox="0 0 16 16" version="1.1">
<g id="surface1">
<path style=" stroke:none;fill-rule:nonzero;fill:rgb(25.882354%,25.882354%,25.882354%);fill-opacity:1;" d="M 2.644531 2.769531 C 1.914062 2.769531 1.324219 3.359375 1.324219 4.09375 L 1.324219 12.03125 C 1.324219 12.765625 1.914062 13.355469 2.644531 13.355469 L 6.613281 13.355469 L 6.613281 12.03125 L 3.308594 12.03125 C 2.941406 12.03125 2.644531 11.738281 2.644531 11.371094 L 2.644531 4.753906 C 2.644531 4.390625 2.941406 4.09375 3.308594 4.09375 L 12.570312 4.09375 C 12.933594 4.09375 13.230469 4.390625 13.230469 4.753906 L 13.230469 8.726562 L 14.554688 8.726562 L 14.554688 4.09375 C 14.554688 3.359375 13.964844 2.769531 13.230469 2.769531 Z M 2.644531 2.769531 "/>
<path style=" stroke:none;fill-rule:nonzero;fill:rgb(25.882354%,25.882354%,25.882354%);fill-opacity:1;" d="M 9.425781 5.417969 L 11.742188 5.417969 C 11.832031 5.417969 11.90625 5.492188 11.90625 5.582031 L 11.90625 5.914062 C 11.90625 6.003906 11.832031 6.078125 11.742188 6.078125 L 9.425781 6.078125 C 9.335938 6.078125 9.261719 6.003906 9.261719 5.914062 L 9.261719 5.582031 C 9.261719 5.492188 9.335938 5.417969 9.425781 5.417969 Z M 9.425781 5.417969 "/>
<path style=" stroke:none;fill-rule:nonzero;fill:rgb(25.882354%,25.882354%,25.882354%);fill-opacity:1;" d="M 9.425781 7.402344 L 11.742188 7.402344 C 11.832031 7.402344 11.90625 7.476562 11.90625 7.566406 L 11.90625 7.898438 C 11.90625 7.988281 11.832031 8.0625 11.742188 8.0625 L 9.425781 8.0625 C 9.335938 8.0625 9.261719 7.988281 9.261719 7.898438 L 9.261719 7.566406 C 9.261719 7.476562 9.335938 7.402344 9.425781 7.402344 Z M 9.425781 7.402344 "/>
<path style=" stroke:none;fill-rule:nonzero;fill:rgb(25.882354%,25.882354%,25.882354%);fill-opacity:1;" d="M 11.90625 10.046875 L 11.90625 11.039062 L 8.246094 11.039062 C 8.0625 11.039062 7.914062 11.1875 7.914062 11.371094 L 7.914062 12.03125 C 7.914062 12.214844 8.0625 12.363281 8.246094 12.363281 L 11.90625 12.363281 L 11.90625 13.355469 L 14.554688 11.703125 Z M 11.90625 10.046875 "/>
<path style=" stroke:none;fill-rule:nonzero;fill:rgb(25.882354%,25.882354%,25.882354%);fill-opacity:1;" d="M 4.628906 5.746094 C 4.265625 5.746094 3.96875 6.042969 3.96875 6.410156 L 3.96875 9.71875 C 3.96875 10.082031 4.265625 10.378906 4.628906 10.378906 L 7.277344 10.378906 C 7.644531 10.378906 7.9375 10.082031 7.9375 9.71875 L 7.9375 6.410156 C 7.9375 6.042969 7.644531 5.746094 7.277344 5.746094 Z M 5.953125 6.410156 L 6.945312 6.410156 C 7.128906 6.410156 7.277344 6.558594 7.277344 6.738281 L 7.277344 7.734375 L 5.953125 7.734375 Z M 4.628906 8.394531 L 7.277344 8.394531 L 7.277344 9.386719 C 7.277344 9.570312 7.128906 9.71875 6.945312 9.71875 L 4.960938 9.71875 C 4.777344 9.71875 4.628906 9.570312 4.628906 9.386719 Z M 4.628906 8.394531 "/>
</g>
</svg>
